X: 29
T:Mixed Branle, Charlotte
M:C|
L:1/4
N:Barring editorial
B:Thoinot Arbeau : Orchesographie, 1589
Z:Steve Mansfield March 2001
K:GDor
GG BB | cc d2 | g z d z | cA Bc | d2 G2 ::
Gd dd | cd B2 | d z c z | GA Bc | AG | d z c z |
GA Bc | AG | d z e z | dc BB | AA G2 :|
<end>
<start>
